common/src/main/resources/files/plugins/bigdata/orc.svg

<!--
  - The MIT License (MIT)
  -
  - Copyright (c) 2015-2024 Elior "Mallowigi" Boukhobza
  -
  - Permission is hereby granted, free of charge, to any person obtaining a copy
  - of this software and associated documentation files (the "Software"), to deal
  - in the Software without restriction, including without limitation the rights
  - to use, copy, modify, merge, publish, distribute, sublicense, and/or sell
  - copies of the Software, and to permit persons to whom the Software is
  - furnished to do so, subject to the following conditions:
  -
  - The above copyright notice and this permission notice shall be included in all
  - copies or substantial portions of the Software.
  -
  - THE SOFTWARE IS PROVIDED "AS IS", WITHOUT WARRANTY OF ANY KIND, EXPRESS OR
  - IMPLIED, INCLUDING BUT NOT LIMITED TO THE WARRANTIES OF MERCHANTABILITY,
  - FITNESS FOR A PARTICULAR PURPOSE AND NONINFRINGEMENT. IN NO EVENT SHALL THE
  - AUTHORS OR COPYRIGHT HOLDERS BE LIABLE FOR ANY CLAIM, DAMAGES OR OTHER
  - LIABILITY, WHETHER IN AN ACTION OF CONTRACT, TORT OR OTHERWISE, ARISING FROM,
  - OUT OF OR IN CONNECTION WITH THE SOFTWARE OR THE USE OR OTHER DEALINGS IN THE
  - SOFTWARE.
  -->

<svg data-big="true" xmlns="http://www.w3.org/2000/svg" width="16px" height="16px" viewBox="0 0 16 16">
  <path fill="#62D05D" fill-rule="evenodd"
        d="M7.67676494,13.6374513 C7.20449533,13.1107132 5.92558581,11.4717406 5.69644647,11.0996025 C5.58840165,10.9241236 5.5,10.6980732 5.5,10.5972599 C5.5,10.37006 5.91540881,9.683891 6.31757184,9.24680538 C6.74513325,8.78211304 7.49564769,8.17171477 7.77129435,8.06447498 C7.98532997,7.98120871 8.02827828,7.98004722 8.21183682,8.05257866 C8.76190949,8.26988762 9.86846202,9.28067375 10.258144,9.92177741 C10.563052,10.4234167 10.5761409,10.6839101 10.3173236,11.0997552 C9.98682601,11.6307615 8.11433667,14 8.02516047,14 C8.01231666,14 7.85553892,13.8368595 7.67676494,13.6374674 L7.67676494,13.6374513 Z M7.92438914,1.01611964 C7.95916343,0.994809895 7.98880194,0.994474107 8.02356852,1.0160315 C8.23838255,1.1188631 8.43646426,1.25693782 8.63733442,1.38698078 C9.18251028,1.75716759 9.71247897,2.15200012 10.2486088,2.53677032 C10.821577,2.56245008 11.3948714,2.57904855 11.9678642,2.6041282 C12.0084866,2.61051401 12.0560994,2.60025681 12.0934126,2.61643885 C12.1088093,2.78294979 12.1168312,2.95027811 12.127951,3.11721167 C12.1521631,3.44452694 12.1584762,3.77447301 12.2050988,4.09896404 C12.2374289,4.33939008 12.3494313,4.55668271 12.4844344,4.74861422 C12.7218299,5.08773723 12.9824664,5.40744634 13.2246351,5.74265186 C13.5475378,6.18777794 13.8775014,6.63038185 14.1449829,7.11683561 C14.4221951,7.62366168 14.6725086,8.14852478 14.8764442,8.69375303 C14.9320554,8.8599962 15.0035405,9.02997962 15,9.2091171 C14.8883419,9.30779525 14.7582293,9.37846324 14.6337749,9.45630322 C13.9607857,9.85432246 13.2723741,10.2222041 12.5788095,10.577606 C12.3075852,10.71124 12.0395527,10.8556218 11.756138,10.95822 C11.718466,10.9853106 11.6942651,10.9336643 11.6763058,10.9057137 C11.5487882,10.6469268 11.4999763,10.355607 11.4142903,10.0801928 C11.2711871,9.62435576 11.0536764,9.19912088 10.8152694,8.7924288 C10.3499944,8.01460054 9.78372379,7.30542615 9.1427987,6.68570341 C8.78975587,6.34140707 8.39764238,6.04771553 8.01089041,5.74896823 C7.89745715,5.81721364 7.79052577,5.89761533 7.68150857,5.97363557 C7.38059493,6.17957191 7.1063273,6.4258761 6.84471007,6.68486007 C6.35124118,7.17659031 5.88637483,7.70313819 5.4711398,8.27134716 C5.15891919,8.69155892 4.92663269,9.17140018 4.72720409,9.66140325 C4.56138023,10.0606268 4.46870643,10.4891921 4.30408597,10.8889707 C4.28193,10.9270688 4.27079748,10.9895416 4.22377121,11 C4.15120833,10.989463 4.08575899,10.9474436 4.0179708,10.9196705 C3.50192586,10.6635852 2.99781797,10.3809799 2.4956485,10.095548 C2.04350318,9.83335446 1.5892765,9.57347771 1.15476022,9.27885361 C1.09929577,9.23243884 1.01507791,9.19923404 1.00190728,9.11618512 C0.990405297,8.98345764 1.03313911,8.85304101 1.07069949,8.72835864 C1.22103288,8.2882159 1.43473448,7.87650593 1.65373144,7.4717552 C2.01558236,6.81945564 2.41564264,6.19040075 2.85864784,5.59746698 C3.07464369,5.3011213 3.31963881,5.02948505 3.52462306,4.7240283 C3.6410295,4.55655526 3.69920729,4.35221424 3.7214169,4.1467876 C3.76526336,3.69640564 3.78137598,3.24293024 3.81119017,2.79103444 C3.81861249,2.73117384 3.81163843,2.66450076 3.82734291,2.60849261 C4.45121093,2.56979204 5.07538707,2.53671481 5.69915552,2.4961241 C5.74618347,2.48614491 5.80096777,2.50379899 5.84225613,2.47405987 C6.3446519,2.1204982 6.82669267,1.73344539 7.33188147,1.38364505 C7.52539614,1.25447057 7.71613042,1.11722919 7.92438914,1.01611964 Z"/>
</svg>

<svg xmlns="http://www.w3.org/2000/svg" width="16" height="16" data-big="true"><path fill="#62D05D" fill-rule="evenodd" d="M7.677 13.637c-.473-.526-1.751-2.165-1.98-2.537-.109-.176-.197-.402-.197-.503 0-.227.415-.913.818-1.35.427-.465 1.178-1.075 1.453-1.183.214-.083.257-.084.44-.011.55.217 1.657 1.228 2.047 1.869.305.501.318.762.06 1.178-.331.53-2.204 2.9-2.293 2.9-.013 0-.17-.163-.348-.363m.247-12.62c.035-.022.065-.023.1-.001.214.103.412.24.613.371.546.37 1.075.765 1.612 1.15.573.025 1.146.042 1.719.067.04.007.088-.004.125.012.016.167.024.334.035.501.024.328.03.657.077.982.032.24.144.458.28.65.237.339.497.658.74.994.323.445.653.887.92 1.374.277.507.528 1.032.731 1.577.056.166.128.336.124.515-.112.099-.242.17-.366.247-.673.398-1.362.766-2.055 1.122-.271.133-.54.278-.823.38-.038.027-.062-.024-.08-.052-.127-.26-.176-.55-.262-.826a6.3 6.3 0 0 0-.599-1.288 10.3 10.3 0 0 0-1.672-2.106c-.353-.345-.745-.638-1.132-.937-.114.068-.22.149-.33.225-.3.206-.575.452-.836.71A13.5 13.5 0 0 0 5.47 8.272c-.312.42-.544.9-.744 1.39-.166.4-.258.828-.423 1.228-.022.038-.033.1-.08.111-.073-.01-.138-.053-.206-.08a31 31 0 0 1-1.522-.824c-.452-.263-.907-.523-1.341-.817-.056-.047-.14-.08-.153-.163-.012-.133.031-.263.069-.388.15-.44.364-.851.583-1.256.362-.653.762-1.282 1.205-1.875.216-.296.46-.568.666-.873.116-.167.174-.372.196-.577.044-.45.06-.904.09-1.356.008-.06 0-.126.016-.183.624-.038 1.248-.071 1.872-.112.047-.01.102.008.143-.022.503-.354.985-.74 1.49-1.09.193-.13.384-.267.592-.368"/></svg>
